X:1
T:The Bonnie Labouring Boy
F:http://www.folkinfo.org/songs
B:The Penguin Book of Canadian Folk Songs.
S:
M:6/8
L:1/8
K:C
{D}C|D2 D (ED) C|D2 D (EF) G|
w:Oh, John-ny was *my true love's name *as
A2 A (BA) G |\
w:you can plain -ly 
M:9/8
A3 z2 z (AB) c|d3-d2 e (ec) A|
w:see. And *my fa-ther he *em-
M:6/8
(A2 G) (ED) E|G2 E D2 D|D3 z2 D|
w:ployed *him *his la-bouring boy to be, To
D2 D E D C|D D D D E G|
w:har-row, reap, and to sow *the seed, and to
A2 A (BA) G|\
w:plough my fa-*ther's
M:9/8
A3 z2 z (AB) c|d3-d2 e (dc) A|
w: land; Ve-*ry  soon I fell *in
M:6/8
A2 G (ED) E|G2 E D2 D|D3 z2 ||
w:love with him *as you may un-der-stand.